X:15
T:Grove,The. JBs.015
S:Jas.Blackshaw MS, 1837, N.Shropshire
Z:Tony Weatherall 200
M:6/8
L:1/8
Q:3/8=120
A:North Shropshire
R:Jig
K:C
â€œ_key sig. G in MSâ€cBc GEG|cec dfd|cBc GEG|ced â€œ^cr in MSâ€c3:|!
|:gea gfe|dec BAG|F2 AE2 G|DEF G3:|

